icons/1_Primary/OpenVPN.svg

<svg width="1024" height="1024" fill="none" xmlns="http://www.w3.org/2000/svg"><g clip-path="url(#a)"><path d="M512 1024c282.77 0 512-229.23 512-512S794.77 0 512 0 0 229.23 0 512s229.23 512 512 512Z" fill="#F8C18C"/><path d="M592.2 515.3c0-44.9-36.1-81-81-81s-81 36.1-81 81c0 35 21.9 64.5 52.5 75.5L451 757.1h120.3l-30.6-166.3c29.6-12.1 51.5-40.5 51.5-75.5Zm175.8 5.5c0-140-114.9-253.8-256-253.8S256 380.7 256 520.8c0 93 50.3 173.9 125.8 217.7l16.4-108.3c-24.1-26.3-39.4-62.4-39.4-100.6 0-83.1 67.8-151 152.1-151S663 446.4 663 529.5c0 39.4-15.3 74.4-39.4 101.7L640 739.6c76.6-43.8 128-125.9 128-218.8Z" fill="#fff"/></g><defs><clipPath id="a"><path fill="#fff" d="M0 0h1024v1024H0z"/></clipPath></defs></svg>

<svg width="1024" height="1024" viewBox="0 0 1024 1024" fill="none" xmlns="http://www.w3.org/2000/svg">
<g clip-path="url(#clip0_2_3048)">
<path d="M512 1024C794.77 1024 1024 794.77 1024 512C1024 229.23 794.77 0 512 0C229.23 0 0 229.23 0 512C0 794.77 229.23 1024 512 1024Z" fill="#F8C18C"/>
<path d="M592.2 515.3C592.2 470.4 556.1 434.3 511.2 434.3C466.3 434.3 430.2 470.4 430.2 515.3C430.2 550.3 452.1 579.8 482.7 590.8L451 757.1H571.3L540.7 590.8C570.3 578.7 592.2 550.3 592.2 515.3ZM768 520.8C768 380.8 653.1 267 512 267C370.9 267 256 380.7 256 520.8C256 613.8 306.3 694.7 381.8 738.5L398.2 630.2C374.1 603.9 358.8 567.8 358.8 529.6C358.8 446.5 426.6 378.6 510.9 378.6C595.2 378.6 663 446.4 663 529.5C663 568.9 647.7 603.9 623.6 631.2L640 739.6C716.6 695.8 768 613.7 768 520.8Z" fill="white"/>
</g>
<defs>
<clipPath id="clip0_2_3048">
<rect width="1024" height="1024" fill="white"/>
</clipPath>
</defs>
</svg>
